src/assets/images/profileEmailIcon.svg

<?xml version="1.0" encoding="UTF-8"?>
<svg xmlns="http://www.w3.org/2000/svg" xmlns:xlink="http://www.w3.org/1999/xlink" width="30pt" height="23pt" viewBox="0 0 30 23" version="1.1">
<g id="surface1">
<path style=" stroke:none;fill-rule:nonzero;fill:rgb(100%,100%,100%);fill-opacity:1;" d="M 2.957031 4.152344 C 2.773438 3.941406 2.796875 3.621094 2.996094 3.433594 C 3.203125 3.25 3.515625 3.265625 3.703125 3.476562 C 5.609375 5.664062 7.457031 7.710938 9.332031 9.191406 C 11.167969 10.640625 13.035156 11.5625 15.03125 11.558594 C 17.019531 11.550781 18.949219 10.652344 20.839844 9.246094 C 22.773438 7.804688 24.671875 5.832031 26.550781 3.71875 C 26.734375 3.515625 27.050781 3.496094 27.253906 3.6875 C 27.457031 3.878906 27.472656 4.195312 27.285156 4.402344 C 25.378906 6.550781 23.4375 8.566406 21.425781 10.066406 C 19.371094 11.589844 17.257812 12.5625 15.03125 12.570312 C 12.789062 12.574219 10.722656 11.574219 8.726562 9.996094 C 6.777344 8.457031 4.894531 6.371094 2.957031 4.152344 Z M 4.070312 0 L 25.875 0 C 26.988281 0 28.011719 0.464844 28.746094 1.222656 C 29.488281 1.972656 29.945312 3.015625 29.945312 4.152344 L 29.945312 18.8125 C 29.945312 19.957031 29.488281 20.992188 28.753906 21.746094 L 28.746094 21.75 C 28.011719 22.5 26.996094 22.96875 25.875 22.96875 L 4.070312 22.96875 C 2.949219 22.96875 1.933594 22.5 1.199219 21.75 L 1.199219 21.746094 C 0.457031 20.992188 0 19.957031 0 18.8125 L 0 4.152344 C 0 3.015625 0.457031 1.972656 1.199219 1.222656 C 1.933594 0.472656 2.957031 0 4.070312 0 Z M 25.875 1.015625 L 4.070312 1.015625 C 3.226562 1.015625 2.457031 1.371094 1.898438 1.9375 L 1.898438 1.941406 C 1.34375 2.507812 0.996094 3.292969 0.996094 4.152344 L 0.996094 18.8125 C 0.996094 19.675781 1.34375 20.460938 1.898438 21.03125 C 2.457031 21.597656 3.226562 21.953125 4.070312 21.953125 L 25.875 21.953125 C 26.71875 21.953125 27.488281 21.597656 28.046875 21.03125 C 28.601562 20.460938 28.949219 19.675781 28.949219 18.8125 L 28.949219 4.152344 C 28.949219 3.292969 28.601562 2.507812 28.046875 1.941406 L 28.046875 1.9375 C 27.488281 1.371094 26.71875 1.015625 25.875 1.015625 Z M 25.875 1.015625 "/>
</g>
</svg>

<svg xmlns="http://www.w3.org/2000/svg" width="40" height="23pt" viewBox="0 0 30 23"><path style="stroke:none;fill-rule:nonzero;fill:#fff;fill-opacity:1" d="M2.957 4.152a.522.522 0 0 1 .04-.718.497.497 0 0 1 .706.043C5.61 5.664 7.457 7.71 9.332 9.19c1.836 1.45 3.703 2.371 5.7 2.368 1.988-.008 3.917-.907 5.808-2.313 1.933-1.441 3.832-3.414 5.71-5.527a.492.492 0 0 1 .704-.031.51.51 0 0 1 .031.714c-1.906 2.149-3.848 4.164-5.86 5.664-2.054 1.524-4.167 2.496-6.394 2.504-2.242.004-4.308-.996-6.304-2.574-1.95-1.539-3.832-3.625-5.77-5.844zM4.07 0h21.805c1.113 0 2.137.465 2.871 1.223.742.75 1.2 1.793 1.2 2.93v14.66c0 1.144-.458 2.18-1.192 2.933l-.008.004a4.01 4.01 0 0 1-2.871 1.219H4.07A4.01 4.01 0 0 1 1.2 21.75v-.004A4.166 4.166 0 0 1 0 18.813V4.152c0-1.137.457-2.18 1.2-2.93A4.028 4.028 0 0 1 4.07 0zm21.805 1.016H4.07a3.05 3.05 0 0 0-2.172.921v.004a3.16 3.16 0 0 0-.902 2.211v14.66c0 .864.348 1.649.902 2.22a3.05 3.05 0 0 0 2.172.921h21.805a3.05 3.05 0 0 0 2.172-.922 3.18 3.18 0 0 0 .902-2.218V4.152a3.16 3.16 0 0 0-.902-2.212v-.004a3.05 3.05 0 0 0-2.172-.921zm0 0"/></svg>
